icons/svg/poi_colored/village.svg

<?xml version="1.0" encoding="UTF-8" standalone="no"?>
<!-- Created with Inkscape (http://www.inkscape.org/) -->

<svg
   xmlns:dc="http://purl.org/dc/elements/1.1/"
   xmlns:cc="http://creativecommons.org/ns#"
   xmlns:rdf="http://www.w3.org/1999/02/22-rdf-syntax-ns#"
   xmlns:svg="http://www.w3.org/2000/svg"
   xmlns="http://www.w3.org/2000/svg"
   xmlns:sodipodi="http://sodipodi.sourceforge.net/DTD/sodipodi-0.dtd"
   xmlns:inkscape="http://www.inkscape.org/namespaces/inkscape"
   version="1.0"
   width="580"
   height="580"
   id="svg2"
   sodipodi:version="0.32"
   inkscape:version="0.91 r"
   sodipodi:docname="village.svg"
   inkscape:output_extension="org.inkscape.output.svg.inkscape">
  <metadata
     id="metadata10">
    <rdf:RDF>
      <cc:Work
         rdf:about="">
        <dc:format>image/svg+xml</dc:format>
        <dc:type
           rdf:resource="http://purl.org/dc/dcmitype/StillImage" />
        <cc:license
           rdf:resource="http://web.resource.org/cc/PublicDomain" />
        <dc:language>en</dc:language>
        <dc:title></dc:title>
      </cc:Work>
    </rdf:RDF>
  </metadata>
  <sodipodi:namedview
     inkscape:window-height="1004"
     inkscape:window-width="1920"
     inkscape:pageshadow="2"
     inkscape:pageopacity="0.0"
     guidetolerance="10.0"
     gridtolerance="10.0"
     objecttolerance="10.0"
     borderopacity="1.0"
     bordercolor="#666666"
     pagecolor="#ffffff"
     id="base"
     showgrid="false"
     inkscape:zoom="0.70710678"
     inkscape:cx="524.88644"
     inkscape:cy="443.27984"
     inkscape:window-x="1680"
     inkscape:window-y="0"
     inkscape:current-layer="svg2"
     inkscape:window-maximized="1"
     inkscape:snap-global="false">
    <inkscape:grid
       type="xygrid"
       id="grid3034" />
  </sodipodi:namedview>
  <defs
     id="defs4">
    <inkscape:perspective
       sodipodi:type="inkscape:persp3d"
       inkscape:vp_x="0 : 290 : 1"
       inkscape:vp_y="0 : 1000 : 0"
       inkscape:vp_z="580 : 290 : 1"
       inkscape:persp3d-origin="290 : 193.33333 : 1"
       id="perspective12" />
    <style
       type="text/css"
       id="style6">
   
    .fil0 {fill:#EF7900}
   
  </style>
    <inkscape:perspective
       id="perspective6807"
       inkscape:persp3d-origin="29.116032 : 19.410688 : 1"
       inkscape:vp_z="58.232063 : 29.116032 : 1"
       inkscape:vp_y="0 : 1000 : 0"
       inkscape:vp_x="0 : 29.116032 : 1"
       sodipodi:type="inkscape:persp3d" />
    <inkscape:perspective
       id="perspective6954"
       inkscape:persp3d-origin="290 : 193.33333 : 1"
       inkscape:vp_z="580 : 290 : 1"
       inkscape:vp_y="0 : 1000 : 0"
       inkscape:vp_x="0 : 290 : 1"
       sodipodi:type="inkscape:persp3d" />
    <inkscape:perspective
       id="perspective2541"
       inkscape:persp3d-origin="240 : 160 : 1"
       inkscape:vp_z="480 : 240 : 1"
       inkscape:vp_y="0 : 1000 : 0"
       inkscape:vp_x="0 : 240 : 1"
       sodipodi:type="inkscape:persp3d" />
    <inkscape:perspective
       id="perspective2750"
       inkscape:persp3d-origin="215 : 143.33333 : 1"
       inkscape:vp_z="430 : 215 : 1"
       inkscape:vp_y="0 : 1000 : 0"
       inkscape:vp_x="0 : 215 : 1"
       sodipodi:type="inkscape:persp3d" />
    <inkscape:perspective
       id="perspective3730"
       inkscape:persp3d-origin="88.929146 : 101.19778 : 1"
       inkscape:vp_z="177.85829 : 151.79668 : 1"
       inkscape:vp_y="0 : 1000 : 0"
       inkscape:vp_x="0 : 151.79668 : 1"
       sodipodi:type="inkscape:persp3d" />
  </defs>
  <a
     id="a3072">
    <g
       id="g1327">
      <path
         id="path1329"
         style="fill:#111111;stroke:#eeeeee;stroke-width:3.40799999"
         d="M 66.275,1.768 C 24.94,1.768 1.704,23.139 1.704,66.804 L 1.704,516.927 C 1.704,557.771 22.598,579.156 63.896,579.156 L 515.92,579.156 C 557.227,579.156 578.149,558.84 578.149,516.927 L 578.149,66.804 C 578.149,24.203 557.227,1.768 514.627,1.768 C 514.624,1.768 66.133,1.625 66.275,1.768 z" />
    </g>
  </a>
  <g
     id="g1327-3"
     transform="matrix(1.4887701,0,0,1.4888106,-703.87313,-249.96612)" />
  <path
     style="font-size:12px;fill:#ffffff;fill-opacity:1;fill-rule:evenodd;stroke:#ffffff;stroke-width:0.62294865;stroke-opacity:1"
     d="m 152.52344,251.5293 -83.039065,59.76562 -39.392578,73.8711 32.943359,0 0,138.58593 178.978514,0 0,-138.58593 32.31836,0 -40.54883,-70.08594 z m -19.74414,50.34145 38.49804,0 0,42.8973 -38.49804,0 z m -37.443362,110.43121 43.267582,0 0,54.58084 -43.267582,0 z m 72.783202,0.11328 43.13477,0 0,55.15506 -43.13477,0 z"
     id="path645"
     inkscape:connector-curvature="0"
     sodipodi:nodetypes="ccccccccccccccccccccccccc" />
  <path
     inkscape:connector-curvature="0"
     d="m 429.02399,46.840377 -107.02979,78.395303 0,391.9765 214.05957,0 0,-391.9765 -107.02978,-78.395303 z m 29.18992,78.395303 -58.37988,0 0,-17.63895 29.18996,-21.55873 29.18992,21.55873 0,17.63895 z m -58.37988,97.99411 -38.91991,0 0,-39.19764 38.91991,0 0,39.19764 z m 0,78.39531 -38.91991,0 0,-39.19765 38.91991,0 0,39.19765 z m 0,78.39531 -38.91991,0 0,-39.19767 38.91991,0 0,39.19767 z m 0,78.3953 -38.91991,0 0,-39.19766 38.91991,0 0,39.19766 z m 97.29982,-235.18592 -38.91994,0 0,-39.19764 38.91994,0 0,39.19764 z m 0,78.39531 -38.91994,0 0,-39.19765 38.91994,0 0,39.19765 z m 0,78.39531 -38.91994,0 0,-39.19767 38.91994,0 0,39.19767 z m 0,78.3953 -38.91994,0 0,-39.19766 38.91994,0 0,39.19766 z"
     id="path3"
     style="fill:#ffffff;fill-opacity:1;stroke:none" />
</svg>

<svg width="580" height="580" viewBox="0 0 580 580" fill="none" xmlns="http://www.w3.org/2000/svg">
<path fill-rule="evenodd" clip-rule="evenodd" d="M152.523 251.529L69.4844 311.295L30.0918 385.166H63.0352V523.752H242.014V385.166H274.332L233.783 315.08L152.523 251.529ZM132.779 301.871H171.277V344.768H132.779V301.871ZM95.3359 412.302H138.604V466.883H95.3359V412.302ZM168.119 412.415H211.254V467.57H168.119V412.415Z" fill="white" stroke="white" stroke-width="0.622949"/>
<path d="M429.024 46.8403L321.994 125.236V517.212H536.054V125.236L429.024 46.8403V46.8403ZM458.214 125.236H399.834V107.597L429.024 86.038L458.214 107.597V125.236ZM399.834 223.23H360.914V184.032H399.834V223.23ZM399.834 301.625H360.914V262.427H399.834V301.625ZM399.834 380.02H360.914V340.823H399.834V380.02ZM399.834 458.416H360.914V419.218H399.834V458.416ZM497.134 223.23H458.214V184.032H497.134V223.23ZM497.134 301.625H458.214V262.427H497.134V301.625ZM497.134 380.02H458.214V340.823H497.134V380.02ZM497.134 458.416H458.214V419.218H497.134V458.416Z" fill="white"/>
</svg>
